fs/expand_up_right_28_filled.svg

<svg viewBox="0 0 28 28" fill="none" xmlns="http://www.w3.org/2000/svg" height="1em" width="1em">
  <path d="M6.75 4.5C5.50736 4.5 4.5 5.50736 4.5 6.75V13.9999H11.25C12.7688 13.9999 14 15.2311 14 16.7499V23.5H21.25C22.4926 23.5 23.5 22.4926 23.5 21.25V16.25C23.5 15.8358 23.8358 15.5 24.25 15.5C24.6642 15.5 25 15.8358 25 16.25V21.25C25 23.3211 23.3211 25 21.25 25H6.75C4.67893 25 3 23.3211 3 21.25V6.75C3 4.67893 4.67893 3 6.75 3H11.75C12.1642 3 12.5 3.33579 12.5 3.75C12.5 4.16421 12.1642 4.5 11.75 4.5H6.75ZM15.5 3.75C15.5 3.33579 15.8358 3 16.25 3H24.2498C24.6641 3 24.9998 3.33579 24.9998 3.75V11.75C24.9998 12.1642 24.6641 12.5 24.2498 12.5C23.8356 12.5 23.4998 12.1642 23.4998 11.75V5.56081L17.2803 11.7803C16.9874 12.0732 16.5126 12.0732 16.2197 11.7803C15.9268 11.4874 15.9268 11.0126 16.2197 10.7197L22.4393 4.5H16.25C15.8358 4.5 15.5 4.16421 15.5 3.75Z" fill="#212121"/>
</svg>

<svg viewBox="0 0 28 28" fill="none" xmlns="http://www.w3.org/2000/svg" height="1em" width="1em">
  <path d="M6.75 4.5A2.25 2.25 0 0 0 4.5 6.75V14h6.75A2.75 2.75 0 0 1 14 16.75v6.75h7.25a2.25 2.25 0 0 0 2.25-2.25v-5a.75.75 0 0 1 1.5 0v5A3.75 3.75 0 0 1 21.25 25H6.75A3.75 3.75 0 0 1 3 21.25V6.75A3.75 3.75 0 0 1 6.75 3h5a.75.75 0 0 1 0 1.5h-5Zm8.75-.75a.75.75 0 0 1 .75-.75h8a.75.75 0 0 1 .75.75v8a.75.75 0 1 1-1.5 0V5.56l-6.22 6.22a.75.75 0 1 1-1.06-1.06l6.22-6.22h-6.19a.75.75 0 0 1-.75-.75Z" fill="#212121"/>
</svg>
